!!!COM: Arthur Honegger
!!!OTL: [T610_Hon-w43p9-10h6m1-h7m9]
**kern	**dynam	**kern	**dynam	**kern	**kern	**kern	**kern	**dynam	**kern	**dynam	**kern	**kern
*grp:A	*grp:A	*grp:A	*grp:A	*grp:A	*grp:B	*grp:B	*grp:A	*grp:A	*grp:A	*grp:A	*grp:A	*grp:A
*part9	*part9	*part8	*part8	*part7	*part6	*part5	*part4	*part4	*part3	*part3	*part2	*part1
*staff9	*staff9	*staff8	*staff8	*staff7	*staff6	*staff5	*staff4	*staff4	*staff3	*staff3	*staff2	*staff1
*I"Contrabass	*I"Contrabass	*I"Violoncello	*I"Violoncello	*I"Viola	*I"Violin II	*I"Violin I	*I"Trombone	*I"Trombone	*I"Trumpet [C]	*I"Trumpet [C]	*I"Oboe	*I"Flute
*I'Cb.	*	*I'Vc.	*	*I'Vla.	*I'Vln. II	*I'Vln. I	*I'Tbn.	*	*I'Tpt.	*	*I'Ob.	*I'Fl.
*clefF4	*	*clefF4	*	*clefC3	*clefG2	*clefG2	*clefF4	*	*clefG2	*	*clefG2	*clefG2
*ITrd7c12	*	*	*	*	*	*	*	*	*	*	*	*
*k[]	*	*k[]	*	*k[]	*k[]	*k[]	*k[]	*	*	*	*k[]	*k[]
*	*	*	*	*	*	*	*	*	*	*	*	*
*M3/8	*	*M3/8	*	*M3/8	*M3/8	*M3/8	*M3/8	*	*M3/8	*	*M3/8	*M3/8
=1	=1	=1	=1	=1	=1	=1	=1	=1	=1	=1	=1	=1
*	*	*	*	*	*	*	*^	*	*	*	*	*
!	!	!	!	!LO:TX:a:t=Pizz.	!LO:TX:a:t=Pizz.	!LO:TX:a:t=Pizz.	!LO:TX:a:t=I.	!	!	!LO:TX:a:t=[Sourdines]	!	!	!
4DD#X	p	4DD#X	p	8r	8r	8r	[4.Bn))	4.r	p	[4.e- [4.a-X	p	8%3r	8%3r
.	.	.	.	8g#XL	8r	8r	.	.	.	.	.	.	.
!	!	!	!	!	!LO:TX:t=P:problem:cross-bar beaming (same throughout part)	!LO:TX:t=P:problem:cross-bar beaming (same throughout part)	!	!	!	!	!	!	!
8r	.	8r	.	8d#XJ	8gg#XL	8ggg#XL	.	.	.	.	.	.	.
=2	=2	=2	=2	=2	=2	=2	=2	=2	=2	=2	=2	=2	=2
8GG#XL	.	8G#XL	.	8r	8dd#XJ	8ddd#XJ	4.B_	4.r	.	4.e-_ 4.a-_	.	8%3r	8%3r
!	!	!	!	!LO:TX:t=P:problem:cross-bar beaming throughout part	!	!	!	!	!	!	!	!	!
8DD#XJ	.	8D#XJ	.	8G#XL	8r	8r	.	.	.	.	.	.	.
8r	.	8r	.	8r	8g#XL	8gg#XL	.	.	.	.	.	.	.
=3	=3	=3	=3	=3	=3	=3	=3	=3	=3	=3	=3	=3	=3
8GGG#X	.	8GG#XL	.	8d#XJ	8r	8r	8BL]	4.r	.	8e-L] 8a-]	.	8%3r	8%3r
8r	.	8r	.	8r	8dd#XJ	8ddd#XJ	8rA	.	.	8r	.	.	.
8r	.	8D#XJ	.	8gn	8r	8r	8BJ	.	.	(>16e-'>L 16a-X	.	.	.
.	.	.	.	.	.	.	.	.	.	16e-'>/JJ 16a-/)	.	.	.
=4	=4	=4	=4	=4	=4	=4	=4	=4	=4	=4	=4	=4	=4
!	!	!	!	!	!	!	!	!	!	!	!	!	!LO:TX:a:t=I.
8GG#X	.	8G#XL	.	8r	8r	8r	[4.B	4.r	.	[4.e- [4.a-X	.	8%3r	(4dd#X
8r	.	8D#XJ	.	8g#XL	8r	8r	.	.	.	.	.	.	.
8r	.	8r	.	8dnJ	8gg#XL	8ggg#XL	.	.	.	.	.	.	8b
=5	=5	=5	=5	=5	=5	=5	=5	=5	=5	=5	=5	=5	=5
8%3r	.	8GG#XL	.	8r	8dd#XJ	8ddd#XJ	4.B_	4.r	.	4.e-_ 4.a-_	.	8%3r	4dd#X
.	.	8r	.	8G#XL	8r	8r	.	.	.	.	.	.	.
.	.	8D#XJ	.	8r	8g#XL	8gg#XL	.	.	.	.	.	.	8ee
=6	=6	=6	=6	=6	=6	=6	=6	=6	=6	=6	=6	=6	=6
8%3r	.	8r	.	8d#XJ	8r	8r	4.B_	4.r	.	4.e-_ 4.a-_	.	8%3r	4ff#X
.	.	8GG#XL	.	8r	8dd#XJ	8ddd#XJ	.	.	.	.	.	.	.
.	.	8DD#XJ	.	8g#XL	8r	8r	.	.	.	.	.	.	8gg#X
=7	=7	=7	=7	=7	=7	=7	=7	=7	=7	=7	=7	=7	=7
8%3r	.	8r	.	8d#XJ	8gg#XL	8ggg#XL	4.B]	4.r	.	4.e-] 4.a-]	.	8%3r	8ff#XL
.	.	8GG#X	.	8r	8dd#XJ	8ddd#XJ	.	.	.	.	.	.	8ee
.	.	8r	.	8g#X	8r	8r	.	.	.	.	.	.	8dd#XJ)
=8	=8	=8	=8	=8	=8	=8	=8	=8	=8	=8	=8	=8	=8
4CC#X	.	8C#XL	.	8r	8g#X	8gg#X	[4.B	4.r	.	[4.e- [4.a-X	.	8%3r	(8ee
.	.	8GG#XJ	.	8cc#XL	8r	8r	.	.	.	.	.	.	[4bb
8r	.	8r	.	8g#XJ	8ccc#XL	8ccc#XL	.	.	.	.	.	.	.
=9	=9	=9	=9	=9	=9	=9	=9	=9	=9	=9	=9	=9	=9
8%3r	.	8CC#XL	.	8r	8gg#XJ	8gg#XJ	4.B_	4.r	.	4.e-_ 4.a-_	.	8%3r	8bbL]
.	.	8r	.	8c#XL	8r	8r	.	.	.	.	.	.	8aa#X
.	.	8GG#XJ	.	8r	8cc#XL	8cc#XL	.	.	.	.	.	.	8gg#XJ
=10	=10	=10	=10	=10	=10	=10	=10	=10	=10	=10	=10	=10	=10
8%3r	.	8r	.	8g#XJ	8r	8r	4.B_	4.r	.	4.e-_ 4.a-_	.	8%3r	4ff#X
.	.	8C#XL	.	8r	8gg#XJ	8gg#XJ	.	.	.	.	.	.	.
.	.	8GG#XJ	.	8cc#XL	8r	8r	.	.	.	.	.	.	16gg#XLL
.	.	.	.	.	.	.	.	.	.	.	.	.	16ff#JJ
=11	=11	=11	=11	=11	=11	=11	=11	=11	=11	=11	=11	=11	=11
!	!	!	!	!	!	!	!	!	!	!	!	!LO:TX:a:t=I.	!
8%3r	.	8r	.	8g#XJ	8ddd#XL	8ddd#XL	4B]	4.r	.	4e-] 4a-]	.	(4dd#X	4dd#X)
.	.	8C#X	.	8r	8gg#XJ	8gg#XJ	.	.	.	.	.	.	.
.	.	8r	.	8cc#X	8r	8r	8rA	.	.	8r	.	8ee	8r
*	*	*	*	*	*	*	*v	*v	*	*	*	*	*
=12	=12	=12	=12	=12	=12	=12	=12	=12	=12	=12	=12	=12
!	!	!	!	!	!	!	!LO:TX:b:t=II.	!	!	!	!	!
4GGn	.	8G#XL	.	8r	8ddd#X	8ddd#X	[4.B	.	4.e- [4.a-X	.	4dd#X	8%3r
.	.	8D#XJ	.	8g#XL	8r	8r	.	.	.	.	.	.
8r	.	8r	.	8d#XJ	8gg#XL	8ggg#XL	.	.	.	.	8b	.
=13	=13	=13	=13	=13	=13	=13	=13	=13	=13	=13	=13	=13
8%3r	.	8GG#XL	.	8r	8ddd#XJ	8ddd#XJ	4.B_	.	4.e- 4.a-_	.	4dd#X	8%3r
.	.	8r	.	8GnL	8r	8r	.	.	.	.	.	.
.	.	8D#XJ	.	8r	8gg#XL	8gg#XL	.	.	.	.	8ee	.
=14	=14	=14	=14	=14	=14	=14	=14	=14	=14	=14	=14	=14
8%3r	.	8r	.	8d#XJ	8r	8r	4.B_	.	4.e- 4.a-_	.	8ff#XL	8%3r
.	.	8C#XL	.	8r	8ddd#XJ	8ddd#XJ	.	.	.	.	8gg#X	.
.	.	8GG#XJ	.	8c#XL	8r	8r	.	.	.	.	8ff#J	.
=15	=15	=15	=15	=15	=15	=15	=15	=15	=15	=15	=15	=15
8%3r	.	8r	.	8G#XJ	8ccc#XL	8ccc#XL	8BL]	.	8e-L 8a-]	.	4ee	8%3r
.	.	8C#X	.	8r	8gg#XJ	8gg#XJ	8r	.	8r	.	.	.
.	.	8r	.	8c#X	8r	8r	8B'J	.	16e-L 16a-X	.	8ff#X	.
.	.	.	.	.	.	.	.	.	16e-JJ 16a-	.	.	.
=16	=16	=16	=16	=16	=16	=16	=16	=16	=16	=16	=16	=16
4FFFn	.	8F#XL	.	8r	8ccc#X	8ccc#X	[4.A	.	4.eX [4.g#X	.	4dd#X)	(8gg#XL
.	.	8C#XJ	.	8f#XL	8r	8r	.	.	.	.	.	8dd#X
8r	.	8r	.	8c#XJ	8ff#XL	8fff#XL	.	.	.	.	8r	8bJ
=17	=17	=17	=17	=17	=17	=17	=17	=17	=17	=17	=17	=17
8%3r	.	8FF#XL	.	8r	8ccc#XJ	8ccc#XJ	4.A_	.	4.eX 4.g#_	.	8%3r	8cc#XL
.	.	8r	.	8F#XL	8r	8r	.	.	.	.	.	8dd#X
.	.	8C#XJ	.	8r	8ff#XL	8ff#XL	.	.	.	.	.	8eeJ
=18	=18	=18	=18	=18	=18	=18	=18	=18	=18	=18	=18	=18
8%3r	.	8r	.	8c#XJ	8r	8r	4.A_	.	4.eX 4.g#_	.	8%3r	8ff#XL
.	.	8FF#XL	.	8r	8ccc#XJ	8ccc#XJ	.	.	.	.	.	8gg#X
.	.	8CC#XJ	.	8f#XL	8r	8r	.	.	.	.	.	8aaJ
=19	=19	=19	=19	=19	=19	=19	=19	=19	=19	=19	=19	=19
8%3r	.	8r	.	8c#XJ	8ff#XL	8ff#XL	4.A_	.	4eX 4g#]	.	8%3r	8gg#XL
.	.	8FF#X	.	8r	8cc#XJ	8cc#XJ	.	.	.	.	.	8bb
.	.	8r	.	8f#X	8r	8r	.	.	8r	.	.	8aaJ
=20	=20	=20	=20	=20	=20	=20	=20	=20	=20	=20	=20	=20
*	*	*	*	*	*	*	*^	*	*	*	*	*
!	!	!	!	!	!	!	!LO:TX:a:t=I.	!	!	!	!	!	!
4BBB	.	8BBL	.	8r	8ff#X	8ff#X	4.A_	8A	.	((4.d 4.g#X	.	(4gg#X	4gg#X)
.	.	8FF#XJ	.	8bL	8r	8r	.	8r	.	.	.	.	.
8r	.	8r	.	8f#XJ	8bb	8bb	.	8r	.	.	.	8ff#X)	8r
*	*	*	*	*	*	*	*v	*v	*	*	*	*	*
=	=	=	=	=	=	=	=	=	=	=	=	=
*-	*-	*-	*-	*-	*-	*-	*-	*-	*-	*-	*-	*-
!!!system-decoration: [(s1,s2)][(s3,s4)][(s5,s6,s7,s8,s9)]
!!!YEM: Copyright © Natalie
!!!RDF**kern: > = above
!!!RDF**kern: < = below
